X: 4373
M: C|
L: 1/8
K: G
|:\
d4 B3c | d4 G4 | ABcd c2B2 | B4 A4 |\
e^def e2f2 | g4 e4 | f2ed ^c3d | d6 "_D.C."z2 |]


